!!!OTL: 242. Nachahmung.
!!!ARE: Europa, Mitteleuropa, Deutschland, Westfalen, Hoerde
!!!SCT: K2242
!!!TXL: @@DE
!!!YEM: Copyright 1995, estate of Helmut Schaffrath.
**kern	**text
*clefG2	*
*M2/4	*
*k[f#c#]	*
*D:	*
=1	=1
{8d	Seht
8e	ihr
8f#	mei-
8g	-ne
=2	=2
4a	Her-
8a}	-ren
{8a	ſo
=3	=3
8b	ſetʒ'
8b	ich
8dd	mei-
8b	-nen
=4	=4
4a	Fuß.
4r}	.
=5	=5
{8g	Wollt
8g	ihr
8g	wiſ-
8g	-ſen,
=6	=6
8f#	wollt
8f#	ihr
8f#	wiſ-
8f#}	-ſen,
=7	=7
{8e	wie's
8e	die
8e	jun-
8e	-gen
=8	=8
8d	Damen
8f#	.
8a	ma-
8a}	-chen?
=9	=9
{8dd	Reif-
8a	-rock
8a	ſchla-
8a	-gen;
=10	=10
8dd	Reif-
8a	-rock
8a}	ſchlagen;
{8a	die
=11	=11
8d	an-
8e	-dern
8f#	ma-
8g	-chens
=12	=12
4a	ſo,
8r}	.
{8g	die
=13	=13
8f#	an-
8f#	-dern
8e	ma-
8e	-chens
=14	=14
4d	ſo!
4r}	.
==	==
!!!AGN: Kinder - Lied, Reigen, Tanz, Nachahmungs - Spiel
!!!ONB: ESAC (Essen Associative Code) Database: KINDER
!!!AMT: simple duple
!!!AIN: vox
!!!EED: Helmut Schaffrath
!!!EEV: 1.0
!!Aus Westfalen (Hoerde) 1885 durch E. Wolfram. Aus Kassel mit anderer Mel. bei Lewalter III. 7.
!!!GTL: Zweites Buch. Kinderspiel: 2. Reigen und Tanzspiele. / E. Reigenspiele mit Nachahmungen.
!!!URL-scan: https://archive.org/details/DeutschesKinderliedUndKinderspiel/page/498/mode/1up
!!!ENC: Anna Maria Matuszewska
!!!EEV: 2024/04/09
*-	*-
